X: 42767
T: White Petticoat, The
R: jig
M: 6/8
K: Eminor
A|:"Em" Bed cBA|GFE B,EG|"B7"FBB cBB|eBB cBA|
"Em" Bed cBA|"Em"GFE B,EG|"B7"FBB cBA|1 "Em" GEE E2 A:|2 "Em" GEE E2||
f|:"C" gec Gce|"C"gaf "C/B"g3|"Am" cBA EAc|"Em" Be^d e3|
"B7" FBB "(C)"GBB|"B7" FBA "(C)"GFE|"Em" B,EG "Am" cBA|1 "B7"GEE "Em"E2 f:|2 "B7" GEE "Em"E2||

